X:JMB-49
T:"Bugge og Busk"
T:(Totakt-pols, nr. JMB-49) 
T:variation så som den spelas på CD:n
S:efter CD-n Totakt-pols
R:Totakt-pols
O:Husby, Ringköbing amt, Danmark
M:2/4
L:1/16
Q:1/4=100
K:G

|: d3c B2(Bd)|c2(Ac) B2G2|G2B2 (3(d2B2)d2|g2d2B2G2|c4 A4|D6 c2|
B2G2 (Ac)(AF)|G4 G,4::g2b2 (bg)(bg)|f2a2 (af)(af)|e2g2 (ge)(ge)|
(fg)(af) d4|A2c2 (cA)(cA)|B3B1 (cB)(cA)|A4 G4:|

(:musicend:)
(:music:)
